X: 20863
T: Farewell to Edinburgh
%R: reel
B: James Oswald "The Caledonian Pocket Companion" v.2 p.86 #2
Z: 2019 John Chambers <jc:trillian.mit.edu>
N: Handwritten "Vol IX" at lower left and "Finis" at lower right.
%%slurgraces 1
%%graceslurs 1
M: C|
L: 1/8
K: G
"_Moderately Quick"B>c |\
{Bc}d2G2 {B}A2GF | G2(A/B/c) B2(c/d/e) | d2(ef) (gd)(cB) | {B2}A4 z2B>c |\
{Bc}d2G2 (BA)(GF) |
G2 (A/B/c) B2 (c/d/e) | (3def (3gfe d2 T^c>d | d6 :: d2 |\
A3B c2 (g/f/e) | (dF)(GA) B3c | (dB) (GE) (ec) (AG) |
{G2}F6 d>c |\
(B/A/G) (G/A/B) (c/B/A) (A/B/c) | (d/B/G) E>e Hd2 zc | (Bd) (EA) TF3G | G6 :|
